actions/22/view-certificate-add.svg

<svg xmlns="http://www.w3.org/2000/svg" viewBox="0 0 22 22">
  <defs id="defs3051">
    <style type="text/css" id="current-color-scheme">
      .ColorScheme-Text {
        color:#eff0f1;
      }
      </style>
  </defs>
 <path 
    style="fill:currentColor;fill-opacity:1;stroke:none" 
    d="M 3 5 L 3 17 L 13 17 L 13 16 L 4 16 L 4 6 L 18 6 L 18 14 L 19 14 L 19 5 L 3 5 z M 7.5 7 C 6.669 7 6 7.669 6 8.5 L 6 10 L 5 10 L 5 13 L 10 13 L 10 10 L 9 10 L 9 8.5 C 9 7.669 8.331 7 7.5 7 z M 7.5 8 C 7.777 8 8 8.223 8 8.5 L 8 10 L 7 10 L 7 8.5 C 7 8.223 7.223 8 7.5 8 z M 11 8 L 11 9 L 17 9 L 17 8 L 11 8 z M 11 10 L 11 11 L 16 11 L 16 10 L 11 10 z M 11 12 L 11 13 L 15 13 L 15 12 L 11 12 z M 16 14 L 16 16 L 14 16 L 14 17 L 16 17 L 16 19 L 17 19 L 17 17 L 19 17 L 19 16 L 17 16 L 17 14 L 16 14 z "
	class="ColorScheme-Text"
    />  
</svg>

<svg xmlns="http://www.w3.org/2000/svg" viewBox="0 0 22 22">
  <defs id="defs3051">
<style type="text/css" id="current-color-scheme">.ColorScheme-Text {color:#fcfcfc;}</style>
  </defs>
 <path 
    style="fill:currentColor;fill-opacity:1;stroke:none" 
    d="m 3,8 v 6 c 0,0 0,3 3,3 3,0 7,0 7,0 V 16 C 13,16 8,16 6,16 4,16 4,14 4,14 V 8 c 0,0 0,-2 2,-2 2,0 8,0 10,0 2,0 2,2 2,2 v 6 h 1 V 8 C 19,8 19,5 16,5 13,5 9,5 6,5 3,5 3,8 3,8 Z M 7.5,7 C 6.669,7 6,7.669 6,8.5 V 10 c 0,0 -1,0 -1,1 0,1 0,0 0,1 0,1 1,1 1,1 h 3 c 0,0 1,0 1,-1 0,-1 0,0 0,-1 0,-1 -1,-1 -1,-1 V 8.5 C 9,7.669 8.331,7 7.5,7 Z m 0,1 C 7.777,8 8,8.223 8,8.5 V 10 H 7 V 8.5 C 7,8.223 7.223,8 7.5,8 Z M 11,8 v 1 h 6 V 8 Z m 0,2 v 1 h 5 v -1 z m 0,2 v 1 h 4 v -1 z m 5,2 v 2 h -2 v 1 h 2 v 2 h 1 v -2 h 2 v -1 h -2 v -2 z"
	class="ColorScheme-Text"
    />  
</svg>
